X:0608
T:The high road to Linton.
M:C
L:1/8
Q:1/2=104
I: :: ||
Z:Jack Campin * www.campin.me.uk * 2009
K:A Mixolydian
d|ceef a2ae|f2fe a2ae|ceef a2ae|faec TB2A:|
d|ceeg fddf|ecce fBBd|ceea fddf|ecac  B2A:|

